images/3039.svg

<?xml version="1.0" encoding="UTF-8"?>
<svg xmlns="http://www.w3.org/2000/svg" xmlns:xlink="http://www.w3.org/1999/xlink" width="300pt" height="300pt" viewBox="0 0 300 300" version="1.1">
<defs>
<g>
<symbol overflow="visible" id="glyph0-0">
<path style="stroke:none;" d="M 0.796875 2.828125 L 0.796875 -11.28125 L 8.796875 -11.28125 L 8.796875 2.828125 Z M 1.703125 1.9375 L 7.90625 1.9375 L 7.90625 -10.390625 L 1.703125 -10.390625 Z M 1.703125 1.9375 "/>
</symbol>
<symbol overflow="visible" id="glyph0-1">
<path style="stroke:none;" d="M 6.3125 -10.59375 C 5.164062 -10.59375 4.253906 -10.164062 3.578125 -9.3125 C 2.898438 -8.457031 2.5625 -7.296875 2.5625 -5.828125 C 2.5625 -4.359375 2.898438 -3.195312 3.578125 -2.34375 C 4.253906 -1.488281 5.164062 -1.0625 6.3125 -1.0625 C 7.457031 -1.0625 8.363281 -1.488281 9.03125 -2.34375 C 9.695312 -3.195312 10.03125 -4.359375 10.03125 -5.828125 C 10.03125 -7.296875 9.695312 -8.457031 9.03125 -9.3125 C 8.363281 -10.164062 7.457031 -10.59375 6.3125 -10.59375 Z M 6.3125 -11.875 C 7.945312 -11.875 9.253906 -11.328125 10.234375 -10.234375 C 11.210938 -9.140625 11.703125 -7.671875 11.703125 -5.828125 C 11.703125 -3.984375 11.210938 -2.507812 10.234375 -1.40625 C 9.253906 -0.3125 7.945312 0.234375 6.3125 0.234375 C 4.664062 0.234375 3.351562 -0.3125 2.375 -1.40625 C 1.394531 -2.507812 0.90625 -3.984375 0.90625 -5.828125 C 0.90625 -7.671875 1.394531 -9.140625 2.375 -10.234375 C 3.351562 -11.328125 4.664062 -11.875 6.3125 -11.875 Z M 6.3125 -11.875 "/>
</symbol>
<symbol overflow="visible" id="glyph0-2">
<path style="stroke:none;" d="M 3.15625 -10.375 L 3.15625 -5.984375 L 5.140625 -5.984375 C 5.867188 -5.984375 6.429688 -6.171875 6.828125 -6.546875 C 7.234375 -6.929688 7.4375 -7.476562 7.4375 -8.1875 C 7.4375 -8.882812 7.234375 -9.421875 6.828125 -9.796875 C 6.429688 -10.179688 5.867188 -10.375 5.140625 -10.375 Z M 1.578125 -11.671875 L 5.140625 -11.671875 C 6.441406 -11.671875 7.425781 -11.375 8.09375 -10.78125 C 8.769531 -10.1875 9.109375 -9.320312 9.109375 -8.1875 C 9.109375 -7.03125 8.769531 -6.15625 8.09375 -5.5625 C 7.425781 -4.976562 6.441406 -4.6875 5.140625 -4.6875 L 3.15625 -4.6875 L 3.15625 0 L 1.578125 0 Z M 1.578125 -11.671875 "/>
</symbol>
<symbol overflow="visible" id="glyph0-3">
<path style="stroke:none;" d="M 10.3125 -10.765625 L 10.3125 -9.109375 C 9.78125 -9.597656 9.210938 -9.960938 8.609375 -10.203125 C 8.003906 -10.453125 7.363281 -10.578125 6.6875 -10.578125 C 5.351562 -10.578125 4.332031 -10.171875 3.625 -9.359375 C 2.914062 -8.546875 2.5625 -7.367188 2.5625 -5.828125 C 2.5625 -4.285156 2.914062 -3.109375 3.625 -2.296875 C 4.332031 -1.484375 5.351562 -1.078125 6.6875 -1.078125 C 7.363281 -1.078125 8.003906 -1.195312 8.609375 -1.4375 C 9.210938 -1.6875 9.78125 -2.054688 10.3125 -2.546875 L 10.3125 -0.90625 C 9.757812 -0.53125 9.171875 -0.242188 8.546875 -0.046875 C 7.929688 0.140625 7.28125 0.234375 6.59375 0.234375 C 4.832031 0.234375 3.441406 -0.304688 2.421875 -1.390625 C 1.410156 -2.472656 0.90625 -3.953125 0.90625 -5.828125 C 0.90625 -7.703125 1.410156 -9.175781 2.421875 -10.25 C 3.441406 -11.332031 4.832031 -11.875 6.59375 -11.875 C 7.289062 -11.875 7.945312 -11.78125 8.5625 -11.59375 C 9.1875 -11.414062 9.769531 -11.140625 10.3125 -10.765625 Z M 10.3125 -10.765625 "/>
</symbol>
<symbol overflow="visible" id="glyph0-4">
<path style="stroke:none;" d="M 1.515625 -12.15625 L 2.953125 -12.15625 L 2.953125 0 L 1.515625 0 Z M 1.515625 -12.15625 "/>
</symbol>
</g>
</defs>
<g id="surface44661">
<rect x="0" y="0" width="300" height="300" style="fill:rgb(100%,100%,100%);fill-opacity:1;stroke:none;"/>
<path style="fill:none;stroke-width:1.2;stroke-linecap:butt;stroke-linejoin:miter;stroke:rgb(0%,0%,0%);stroke-opacity:1;stroke-miterlimit:10;" d="M 60.105469 103.253906 L 78.863281 106.980469 "/>
<path style="fill:none;stroke-width:1.2;stroke-linecap:butt;stroke-linejoin:miter;stroke:rgb(100%,0%,0%);stroke-opacity:1;stroke-miterlimit:10;" d="M 78.863281 106.980469 L 97.625 110.703125 "/>
<path style="fill:none;stroke-width:1.2;stroke-linecap:butt;stroke-linejoin:miter;stroke:rgb(100%,0%,0%);stroke-opacity:1;stroke-miterlimit:10;" d="M 97.625 110.703125 L 103.777344 128.8125 "/>
<path style="fill:none;stroke-width:1.2;stroke-linecap:butt;stroke-linejoin:miter;stroke:rgb(100%,50%,0%);stroke-opacity:1;stroke-miterlimit:10;" d="M 103.777344 128.8125 L 109.929688 146.921875 "/>
<path style=" stroke:none;fill-rule:nonzero;fill:rgb(100%,100%,100%);fill-opacity:1;" d="M 91.625 101.203125 L 104.625 101.203125 L 104.625 120.203125 L 91.625 120.203125 Z M 91.625 101.203125 "/>
<g style="fill:rgb(100%,0%,0%);fill-opacity:1;">
  <use xlink:href="#glyph0-1" x="91.625" y="116.054688"/>
</g>
<path style="fill:none;stroke-width:1.2;stroke-linecap:butt;stroke-linejoin:miter;stroke:rgb(100%,50%,0%);stroke-opacity:1;stroke-miterlimit:10;" d="M 105.667969 148.367188 L 111.824219 166.476562 "/>
<path style="fill:none;stroke-width:1.2;stroke-linecap:butt;stroke-linejoin:miter;stroke:rgb(100%,0%,0%);stroke-opacity:1;stroke-miterlimit:10;" d="M 111.824219 166.476562 L 117.976562 184.585938 "/>
<path style="fill:none;stroke-width:1.2;stroke-linecap:butt;stroke-linejoin:miter;stroke:rgb(100%,50%,0%);stroke-opacity:1;stroke-miterlimit:10;" d="M 114.191406 145.472656 L 120.34375 163.582031 "/>
<path style="fill:none;stroke-width:1.2;stroke-linecap:butt;stroke-linejoin:miter;stroke:rgb(100%,0%,0%);stroke-opacity:1;stroke-miterlimit:10;" d="M 120.34375 163.582031 L 126.496094 181.691406 "/>
<path style="fill:none;stroke-width:1.2;stroke-linecap:butt;stroke-linejoin:miter;stroke:rgb(100%,50%,0%);stroke-opacity:1;stroke-miterlimit:10;" d="M 109.929688 146.921875 L 91.820312 153.074219 "/>
<path style="fill:none;stroke-width:1.2;stroke-linecap:butt;stroke-linejoin:miter;stroke:rgb(100%,0%,0%);stroke-opacity:1;stroke-miterlimit:10;" d="M 91.820312 153.074219 L 73.714844 159.226562 "/>
<path style="fill:none;stroke-width:1.2;stroke-linecap:butt;stroke-linejoin:miter;stroke:rgb(100%,50%,0%);stroke-opacity:1;stroke-miterlimit:10;" d="M 109.929688 146.921875 L 128.039062 140.769531 "/>
<path style="fill:none;stroke-width:1.2;stroke-linecap:butt;stroke-linejoin:miter;stroke:rgb(100%,0%,0%);stroke-opacity:1;stroke-miterlimit:10;" d="M 128.039062 140.769531 L 146.144531 134.613281 "/>
<path style=" stroke:none;fill-rule:nonzero;fill:rgb(100%,100%,100%);fill-opacity:1;" d="M 104.929688 137.421875 L 114.929688 137.421875 L 114.929688 156.421875 L 104.929688 156.421875 Z M 104.929688 137.421875 "/>
<g style="fill:rgb(100%,50%,0%);fill-opacity:1;">
  <use xlink:href="#glyph0-2" x="104.929688" y="152.273438"/>
</g>
<path style=" stroke:none;fill-rule:nonzero;fill:rgb(100%,100%,100%);fill-opacity:1;" d="M 116.238281 173.636719 L 129.238281 173.636719 L 129.238281 192.636719 L 116.238281 192.636719 Z M 116.238281 173.636719 "/>
<g style="fill:rgb(100%,0%,0%);fill-opacity:1;">
  <use xlink:href="#glyph0-1" x="116.238281" y="188.488281"/>
</g>
<path style="fill:none;stroke-width:1.2;stroke-linecap:butt;stroke-linejoin:miter;stroke:rgb(100%,0%,0%);stroke-opacity:1;stroke-miterlimit:10;" d="M 73.714844 159.226562 L 69.988281 177.988281 "/>
<path style="fill:none;stroke-width:1.2;stroke-linecap:butt;stroke-linejoin:miter;stroke:rgb(0%,0%,0%);stroke-opacity:1;stroke-miterlimit:10;" d="M 69.988281 177.988281 L 66.261719 196.746094 "/>
<path style=" stroke:none;fill-rule:nonzero;fill:rgb(100%,100%,100%);fill-opacity:1;" d="M 67.714844 149.726562 L 80.714844 149.726562 L 80.714844 168.726562 L 67.714844 168.726562 Z M 67.714844 149.726562 "/>
<g style="fill:rgb(100%,0%,0%);fill-opacity:1;">
  <use xlink:href="#glyph0-1" x="67.714844" y="164.578125"/>
</g>
<path style="fill:none;stroke-width:1.2;stroke-linecap:butt;stroke-linejoin:miter;stroke:rgb(100%,0%,0%);stroke-opacity:1;stroke-miterlimit:10;" d="M 146.144531 134.613281 L 160.527344 147.21875 "/>
<path style="fill:none;stroke-width:1.2;stroke-linecap:butt;stroke-linejoin:miter;stroke:rgb(0%,0%,0%);stroke-opacity:1;stroke-miterlimit:10;" d="M 160.527344 147.21875 L 174.910156 159.824219 "/>
<path style=" stroke:none;fill-rule:nonzero;fill:rgb(100%,100%,100%);fill-opacity:1;" d="M 140.144531 125.113281 L 153.144531 125.113281 L 153.144531 144.113281 L 140.144531 144.113281 Z M 140.144531 125.113281 "/>
<g style="fill:rgb(100%,0%,0%);fill-opacity:1;">
  <use xlink:href="#glyph0-1" x="140.144531" y="139.964844"/>
</g>
<path style="fill:none;stroke-width:1.2;stroke-linecap:butt;stroke-linejoin:miter;stroke:rgb(0%,0%,0%);stroke-opacity:1;stroke-miterlimit:10;" d="M 174.910156 159.824219 L 211.128906 147.519531 "/>
<path style="fill:none;stroke-width:1.2;stroke-linecap:butt;stroke-linejoin:miter;stroke:rgb(0%,0%,0%);stroke-opacity:1;stroke-miterlimit:10;" d="M 181.429688 167.117188 L 210.402344 157.269531 "/>
<path style="fill:none;stroke-width:1.2;stroke-linecap:butt;stroke-linejoin:miter;stroke:rgb(0%,0%,0%);stroke-opacity:1;stroke-miterlimit:10;" d="M 211.128906 147.519531 L 225.511719 160.125 "/>
<path style="fill:none;stroke-width:1.2;stroke-linecap:butt;stroke-linejoin:miter;stroke:rgb(0%,80%,0%);stroke-opacity:1;stroke-miterlimit:10;" d="M 225.511719 160.125 L 239.894531 172.730469 "/>
<path style="fill:none;stroke-width:1.2;stroke-linecap:butt;stroke-linejoin:miter;stroke:rgb(0%,0%,0%);stroke-opacity:1;stroke-miterlimit:10;" d="M 211.128906 147.519531 L 214.851562 128.761719 "/>
<path style="fill:none;stroke-width:1.2;stroke-linecap:butt;stroke-linejoin:miter;stroke:rgb(0%,80%,0%);stroke-opacity:1;stroke-miterlimit:10;" d="M 214.851562 128.761719 L 218.578125 110 "/>
<path style=" stroke:none;fill-rule:nonzero;fill:rgb(100%,100%,100%);fill-opacity:1;" d="M 231.894531 163.230469 L 247.894531 163.230469 L 247.894531 182.230469 L 231.894531 182.230469 Z M 231.894531 163.230469 "/>
<g style="fill:rgb(0%,80%,0%);fill-opacity:1;">
  <use xlink:href="#glyph0-3" x="231.894531" y="178.082031"/>
  <use xlink:href="#glyph0-4" x="243.066406" y="178.082031"/>
</g>
<path style=" stroke:none;fill-rule:nonzero;fill:rgb(100%,100%,100%);fill-opacity:1;" d="M 210.578125 100.5 L 226.578125 100.5 L 226.578125 119.5 L 210.578125 119.5 Z M 210.578125 100.5 "/>
<g style="fill:rgb(0%,80%,0%);fill-opacity:1;">
  <use xlink:href="#glyph0-3" x="210.578125" y="115.351562"/>
  <use xlink:href="#glyph0-4" x="221.75" y="115.351562"/>
</g>
</g>
</svg>

<svg xmlns="http://www.w3.org/2000/svg" xmlns:xlink="http://www.w3.org/1999/xlink" width="300pt" height="300pt" viewBox="0 0 300 300"><defs><symbol overflow="visible"><path d="M.797 2.828v-14.11h8V2.83zm.906-.89h6.203v-12.33H1.703zm0 0"/></symbol><symbol overflow="visible" id="a"><path d="M6.313-10.594c-1.15 0-2.06.43-2.735 1.28-.68.857-1.015 2.017-1.015 3.486 0 1.47.335 2.633 1.015 3.484.676.856 1.586 1.28 2.735 1.28 1.144.002 2.05-.424 2.718-1.28.665-.85 1-2.015 1-3.484 0-1.47-.335-2.63-1-3.484-.667-.852-1.573-1.282-2.717-1.282zm0-1.28c1.632 0 2.94.546 3.92 1.64.978 1.093 1.47 2.562 1.47 4.406 0 1.844-.492 3.32-1.47 4.422-.98 1.093-2.288 1.64-3.92 1.64-1.65 0-2.96-.546-3.938-1.64-.98-1.102-1.47-2.578-1.47-4.422 0-1.844.49-3.313 1.47-4.406.977-1.094 2.29-1.64 3.938-1.64zm0 0"/></symbol><symbol overflow="visible" id="b"><path d="M3.156-10.375v4.39H5.14c.727 0 1.29-.187 1.688-.562.406-.383.61-.93.61-1.64 0-.696-.204-1.235-.61-1.61-.398-.383-.96-.578-1.687-.578zm-1.578-1.297H5.14c1.3 0 2.286.297 2.954.89.676.595 1.015 1.462 1.015 2.595 0 1.156-.34 2.03-1.016 2.624-.668.586-1.653.875-2.953.875H3.157V0H1.578zm0 0"/></symbol><symbol overflow="visible" id="c"><path d="M10.313-10.766v1.657c-.532-.488-1.102-.85-1.704-1.093-.606-.25-1.247-.375-1.922-.375-1.336 0-2.356.406-3.063 1.22-.71.81-1.063 1.99-1.063 3.53 0 1.543.352 2.72 1.063 3.53.707.814 1.727 1.22 3.063 1.22.675 0 1.316-.117 1.92-.36.603-.25 1.173-.617 1.704-1.11v1.642c-.554.375-1.14.664-1.765.86-.617.187-1.266.28-1.953.28-1.762 0-3.153-.54-4.172-1.625C1.41-2.474.906-3.954.906-5.83c0-1.875.504-3.348 1.516-4.422 1.02-1.082 2.41-1.625 4.172-1.625.695 0 1.35.094 1.968.28.626.18 1.208.454 1.75.83zm0 0"/></symbol><symbol overflow="visible" id="d"><path d="M1.516-12.156h1.437V0H1.516zm0 0"/></symbol></defs><g><path fill="#fff" d="M0 0h300v300H0z"/><path d="M60.105 103.254l18.758 3.726" stroke-width="1.2" stroke="#000" stroke-miterlimit="10" fill="none"/><path d="M78.863 106.98l18.762 3.723M97.625 110.703l6.152 18.11" stroke-width="1.2" stroke="#f00" stroke-miterlimit="10" fill="none"/><path d="M103.777 128.813l6.153 18.11" stroke-width="1.2" stroke="#ff7f00" stroke-miterlimit="10" fill="none"/><path d="M91.625 101.203h13v19h-13zm0 0" fill="#fff"/><use xlink:href="#a" x="91.625" y="116.055" fill="#f00"/><path d="M105.668 148.367l6.156 18.11" stroke-width="1.2" stroke="#ff7f00" stroke-miterlimit="10" fill="none"/><path d="M111.824 166.477l6.153 18.11" stroke-width="1.2" stroke="#f00" stroke-miterlimit="10" fill="none"/><path d="M114.19 145.473l6.154 18.11" stroke-width="1.2" stroke="#ff7f00" stroke-miterlimit="10" fill="none"/><path d="M120.344 163.582l6.152 18.11" stroke-width="1.2" stroke="#f00" stroke-miterlimit="10" fill="none"/><path d="M109.93 146.922l-18.11 6.152" stroke-width="1.2" stroke="#ff7f00" stroke-miterlimit="10" fill="none"/><path d="M91.82 153.074l-18.105 6.153" stroke-width="1.2" stroke="#f00" stroke-miterlimit="10" fill="none"/><path d="M109.93 146.922l18.11-6.152" stroke-width="1.2" stroke="#ff7f00" stroke-miterlimit="10" fill="none"/><path d="M128.04 140.77l18.105-6.157" stroke-width="1.2" stroke="#f00" stroke-miterlimit="10" fill="none"/><path d="M104.93 137.422h10v19h-10zm0 0" fill="#fff"/><use xlink:href="#b" x="104.93" y="152.273" fill="#ff7f00"/><path d="M116.238 173.637h13v19h-13zm0 0" fill="#fff"/><use xlink:href="#a" x="116.238" y="188.488" fill="#f00"/><path d="M73.715 159.227l-3.727 18.76" stroke-width="1.2" stroke="#f00" stroke-miterlimit="10" fill="none"/><path d="M69.988 177.988l-3.726 18.758" stroke-width="1.2" stroke="#000" stroke-miterlimit="10" fill="none"/><path d="M67.715 149.727h13v19h-13zm0 0" fill="#fff"/><use xlink:href="#a" x="67.715" y="164.578" fill="#f00"/><path d="M146.145 134.613l14.382 12.606" stroke-width="1.2" stroke="#f00" stroke-miterlimit="10" fill="none"/><path d="M160.527 147.22l14.383 12.604" stroke-width="1.2" stroke="#000" stroke-miterlimit="10" fill="none"/><path d="M140.145 125.113h13v19h-13zm0 0" fill="#fff"/><use xlink:href="#a" x="140.145" y="139.965" fill="#f00"/><path d="M174.91 159.824l36.22-12.304M181.43 167.117l28.972-9.847M211.13 147.52l14.382 12.605" stroke-width="1.2" stroke="#000" stroke-miterlimit="10" fill="none"/><path d="M225.512 160.125l14.383 12.605" stroke-width="1.2" stroke="#0c0" stroke-miterlimit="10" fill="none"/><path d="M211.13 147.52l3.722-18.758" stroke-width="1.2" stroke="#000" stroke-miterlimit="10" fill="none"/><path d="M214.852 128.762L218.578 110" stroke-width="1.2" stroke="#0c0" stroke-miterlimit="10" fill="none"/><path d="M231.895 163.23h16v19h-16zm0 0" fill="#fff"/><g fill="#0c0"><use xlink:href="#c" x="231.895" y="178.082"/><use xlink:href="#d" x="243.066" y="178.082"/></g><path d="M210.578 100.5h16v19h-16zm0 0" fill="#fff"/><g fill="#0c0"><use xlink:href="#c" x="210.578" y="115.352"/><use xlink:href="#d" x="221.75" y="115.352"/></g></g></svg>
